autogermania/dist/img/svg/arrow-up-down.svg

<svg xmlns="http://www.w3.org/2000/svg" width="32" height="24"><path fill-rule="evenodd" fill="#333" d="M24.012 23.999l-8-9.935h5.979V.012h4.041v14.052h5.979l-7.999 9.935zm-13.992-.012H5.987V9.935H.02L8.003 0l7.984 9.935H10.02v14.052z"/></svg>

<svg 
 xmlns="http://www.w3.org/2000/svg"
 xmlns:xlink="http://www.w3.org/1999/xlink"
 width="32px" height="24px">
<path fill-rule="evenodd"  fill="rgb(51, 51, 51)"
 d="M24.012,23.999 L16.012,14.064 L21.991,14.064 L21.991,0.012 L26.032,0.012 L26.032,14.064 L32.011,14.064 L24.012,23.999 ZM10.020,23.987 L5.987,23.987 L5.987,9.935 L0.020,9.935 L8.003,0.000 L15.987,9.935 L10.020,9.935 L10.020,23.987 Z"/>
</svg>
